assets/ico-search.svg

<?xml version="1.0" encoding="utf-8"?>
<!-- Generator: Adobe Illustrator 15.1.0, SVG Export Plug-In . SVG Version: 6.00 Build 0)  -->
<!DOCTYPE svg PUBLIC "-//W3C//DTD SVG 1.1//EN" "http://www.w3.org/Graphics/SVG/1.1/DTD/svg11.dtd">
<svg version="1.1" id="Layer_1" xmlns="http://www.w3.org/2000/svg" xmlns:xlink="http://www.w3.org/1999/xlink" x="0px" y="0px"
	 width="18px" height="18px" viewBox="0 0 18 18" enable-background="new 0 0 18 18" xml:space="preserve">
<path opacity="0.33" fill="#838586" d="M17.535,15.289l-3.885-3.885c0.739-1.153,1.174-2.521,1.174-3.993
	C14.824,3.318,11.505,0,7.412,0C3.318,0,0,3.318,0,7.412c0,4.094,3.318,7.412,7.412,7.412c1.472,0,2.839-0.435,3.993-1.174
	l3.885,3.885c0.31,0.31,0.716,0.465,1.123,0.465c0.407,0,0.813-0.155,1.123-0.465C18.155,16.915,18.155,15.909,17.535,15.289z
	 M2.118,7.412c0-2.919,2.375-5.294,5.294-5.294s5.294,2.375,5.294,5.294s-2.375,5.294-5.294,5.294S2.118,10.331,2.118,7.412z"/>
</svg>

<?xml version="1.0" encoding="utf-8"?><!DOCTYPE svg PUBLIC "-//W3C//DTD SVG 1.1//EN" "http://www.w3.org/Graphics/SVG/1.1/DTD/svg11.dtd"><svg version="1.1" baseProfile="full" xmlns="http://www.w3.org/2000/svg" xmlns:xlink="http://www.w3.org/1999/xlink" xmlns:ev="http://www.w3.org/2001/xml-events"   height="18px"   width="19px" ><path opacity="0.329" fill="rgb( 131, 133, 134 )" d="M17.535,15.289 C17.535,15.289 13.65,11.404 13.65,11.404 C14.389,10.251 14.824,8.883 14.824,7.412 C14.824,3.318 11.505,0 7.412,0 C3.318,0 0,3.318 0,7.412 C0,11.505 3.318,14.824 7.412,14.824 C8.883,14.824 10.251,14.389 11.404,13.65 C11.404,13.65 15.289,17.535 15.289,17.535 C15.599,17.845 16.005,18 16.412,18 C16.818,18 17.225,17.845 17.535,17.535 C18.155,16.915 18.155,15.909 17.535,15.289 ZM2.118,7.412 C2.118,4.493 4.493,2.118 7.412,2.118 C10.331,2.118 12.706,4.493 12.706,7.412 C12.706,10.331 10.331,12.706 7.412,12.706 C4.493,12.706 2.118,10.331 2.118,7.412 Z "/></svg>
